X: 85
T: Father Gave Me a Pipe
N: Derived from pawnee85.krn
O: Oklahoma, U.S.A.
N: from Pawnee Music by Frances Densmore, 1926
Z: transcribed to **kern format by David Huron, August 2000
C: Skidi and Chaui Bands, 1919
L: 1/8
M: 3/4
Q: 1/4=88
K: F clef=treble
%%linebreak <none>
A2 [I:setbarnb 1]| 
F2(F E) (F E) | 
D2D2(F D) | 
D2D2(D A,) | 
A,2A,2(F E) | 
D2D2(D A,) | 
A,2A,2A2 | 
F2(F E) F E | 
D2D2F E | 
D2D2(D A,) | 
A,2A,2(F E) | 
D2D2(D A,) | 
A,2A,2(F E) | 
D2D2(D A,) | 
A,2A,2 :|]  



